Newaita-dark/actions/22/view-fullscreen.svg

<svg height="22" viewBox="0 0 22 22" width="22" xmlns="http://www.w3.org/2000/svg"><g fill="#e0e0e0"><path d="m5.914062 8.359375h10.003907v.910156h-10.003907zm0 0"/><path d="m6.367188 5.628906c-.503907 0-.910157.40625-.910157.910156v9.097657c0 .503906.40625.90625.910157.90625h9.097656c.503906 0 .90625-.402344.90625-.90625v-9.097657c0-.503906-.402344-.910156-.90625-.910156zm.453124.910156h8.1875c.253907 0 .457032.203126.457032.453126v8.1875c0 .253906-.203125.457031-.457032.457031h-8.1875c-.25 0-.453124-.203125-.453124-.457031v-8.1875c0-.25.203124-.453126.453124-.453126zm0 0"/><path d="m3.636719 1.992188c-1.007813 0-1.816407.808593-1.816407 1.816406v3.640625h1.816407v-2.730469c0-.503906.40625-.910156.910156-.910156h2.730469v-1.816406zm10.917969 0v1.816406h2.726562c.503906 0 .910156.40625.910156.910156v2.730469h1.820313v-3.640625c0-1.007813-.8125-1.816406-1.820313-1.816406zm-12.734376 12.734374v3.636719c0 1.007813.808594 1.820313 1.816407 1.820313h3.640625v-1.820313h-2.730469c-.503906 0-.910156-.40625-.910156-.910156v-2.726563zm16.371094 0v2.726563c0 .503906-.40625.910156-.910156.910156h-2.726562v1.820313h3.636718c1.007813 0 1.820313-.8125 1.820313-1.820313v-3.636719zm0 0"/></g></svg>

<svg xmlns="http://www.w3.org/2000/svg" xmlns:xlink="http://www.w3.org/1999/xlink" width="22px" height="22px" viewBox="0 0 22 22" version="1.1">
<g id="surface1">
     <defs>
  <style id="current-color-scheme" type="text/css">
   .ColorScheme-Text { color:#eeeeee; } .ColorScheme-Highlight { color:#424242; }
  </style>
 </defs>
<path style="fill:currentColor" class="ColorScheme-Text" d="M 5.914062 8.359375 L 15.917969 8.359375 L 15.917969 9.269531 L 5.914062 9.269531 Z M 5.914062 8.359375 "/>
     <defs>
  <style id="current-color-scheme" type="text/css">
   .ColorScheme-Text { color:#eeeeee; } .ColorScheme-Highlight { color:#424242; }
  </style>
 </defs>
<path style="fill:currentColor" class="ColorScheme-Text" d="M 6.367188 5.628906 C 5.863281 5.628906 5.457031 6.035156 5.457031 6.539062 L 5.457031 15.636719 C 5.457031 16.140625 5.863281 16.542969 6.367188 16.542969 L 15.464844 16.542969 C 15.96875 16.542969 16.371094 16.140625 16.371094 15.636719 L 16.371094 6.539062 C 16.371094 6.035156 15.96875 5.628906 15.464844 5.628906 Z M 6.820312 6.539062 L 15.007812 6.539062 C 15.261719 6.539062 15.464844 6.742188 15.464844 6.992188 L 15.464844 15.179688 C 15.464844 15.433594 15.261719 15.636719 15.007812 15.636719 L 6.820312 15.636719 C 6.570312 15.636719 6.367188 15.433594 6.367188 15.179688 L 6.367188 6.992188 C 6.367188 6.742188 6.570312 6.539062 6.820312 6.539062 Z M 6.820312 6.539062 "/>
     <defs>
  <style id="current-color-scheme" type="text/css">
   .ColorScheme-Text { color:#eeeeee; } .ColorScheme-Highlight { color:#424242; }
  </style>
 </defs>
<path style="fill:currentColor" class="ColorScheme-Text" d="M 3.636719 1.992188 C 2.628906 1.992188 1.820312 2.800781 1.820312 3.808594 L 1.820312 7.449219 L 3.636719 7.449219 L 3.636719 4.71875 C 3.636719 4.214844 4.042969 3.808594 4.546875 3.808594 L 7.277344 3.808594 L 7.277344 1.992188 Z M 14.554688 1.992188 L 14.554688 3.808594 L 17.28125 3.808594 C 17.785156 3.808594 18.191406 4.214844 18.191406 4.71875 L 18.191406 7.449219 L 20.011719 7.449219 L 20.011719 3.808594 C 20.011719 2.800781 19.199219 1.992188 18.191406 1.992188 Z M 1.820312 14.726562 L 1.820312 18.363281 C 1.820312 19.371094 2.628906 20.183594 3.636719 20.183594 L 7.277344 20.183594 L 7.277344 18.363281 L 4.546875 18.363281 C 4.042969 18.363281 3.636719 17.957031 3.636719 17.453125 L 3.636719 14.726562 Z M 18.191406 14.726562 L 18.191406 17.453125 C 18.191406 17.957031 17.785156 18.363281 17.28125 18.363281 L 14.554688 18.363281 L 14.554688 20.183594 L 18.191406 20.183594 C 19.199219 20.183594 20.011719 19.371094 20.011719 18.363281 L 20.011719 14.726562 Z M 18.191406 14.726562 "/>
</g>
</svg>
